packages/kaspersky-hexa-ui-icons/src/iconsSVGs/48/AccountId.svg

<svg xmlns="http://www.w3.org/2000/svg" width="48" height="48" fill="none" viewBox="0 0 48 48"><path fill="currentColor" fill-rule="evenodd" d="M8 36v-.033c0-.975.57-1.814 1.388-2.039l1.34-.37c.84-.234 1.632-.882 2.194-1.73.33.109.687.172 1.078.172.398 0 .762-.066 1.099-.18.555.856 1.339 1.507 2.173 1.738l1.34.37c.818.225 1.388 1.064 1.388 2.039zm6-12c.912 0 2 .382 2 2.2 0 1.411-.421 3.8-2 3.8s-2-2.389-2-3.8c0-1.818 1.088-2.2 2-2.2m5.146 8-1.341-.37c-.383-.106-.801-.497-1.092-.983C17.588 29.528 18 27.861 18 26.2c0-2.552-1.57-4.2-4-4.2s-4 1.648-4 4.2c0 1.671.418 3.346 1.302 4.464-.297.471-.726.86-1.108.966l-1.34.37C7.174 32.465 6 34.096 6 35.967V38h16v-2.033c0-1.871-1.174-3.502-2.854-3.967m5.566-23.304c-.189.19-.44.294-.708.295H24c-.55 0-.998-.441-1-.987a.982.982 0 0 1 .288-.7c.189-.19.433-.314.711-.295.55 0 .999.441 1.001.987a.982.982 0 0 1-.288.7m-.713-3.687h-.014c-.799.004-1.551.317-2.115.884-.564.568-.874 1.321-.87 2.121.007 1.644 1.352 2.977 3 2.977h.014c.8-.004 1.551-.317 2.116-.884.564-.567.874-1.321.87-2.121-.007-1.644-1.352-2.977-3.001-2.977M38 38h3v-2h-3zm-4 0h3v-2h-3zm-4 0h3v-2h-3zm-4 0h3v-2h-3zm0-5h16v-2H26zm0-4h16v-2H26zm0-4h6v-2h-6zm20 19H2V14h16v4h-1v2h14v-2h-1v-4h16zM20 18h8V4h-8zm10-6V2H18v10H0v34h48V12z" clip-rule="evenodd"/></svg>

<svg width="48" height="48" viewBox="0 0 48 48" fill="none" xmlns="http://www.w3.org/2000/svg">
<path fill-rule="evenodd" clip-rule="evenodd" d="M8 36V35.967C8 34.992 8.57 34.153 9.388 33.928L10.728 33.558C11.568 33.324 12.36 32.676 12.922 31.828C13.252 31.937 13.609 32 14 32C14.398 32 14.762 31.934 15.099 31.82C15.654 32.676 16.438 33.327 17.272 33.558L18.612 33.928C19.43 34.153 20 34.992 20 35.967L8 36ZM14 24C14.912 24 16 24.382 16 26.2C16 27.611 15.579 30 14 30C12.421 30 12 27.611 12 26.2C12 24.382 13.088 24 14 24ZM19.146 32L17.805 31.63C17.422 31.524 17.004 31.133 16.713 30.647C17.588 29.528 18 27.861 18 26.2C18 23.648 16.43 22 14 22C11.57 22 10 23.648 10 26.2C10 27.871 10.418 29.546 11.302 30.664C11.005 31.135 10.576 31.524 10.194 31.63L8.854 32C7.174 32.465 6 34.096 6 35.967V38H22V35.967C22 34.096 20.826 32.465 19.146 32ZM24.712 8.696C24.523 8.886 24.272 8.99 24.004 8.991H24C23.45 8.991 23.002 8.55 23 8.004C22.999 7.74 23.102 7.491 23.288 7.304C23.477 7.114 23.721 6.99 23.999 7.009C24.549 7.009 24.998 7.45 25 7.996C25.001 8.26 24.898 8.509 24.712 8.696ZM23.999 5.009H23.985C23.186 5.013 22.434 5.326 21.87 5.893C21.306 6.461 20.996 7.214 21 8.014C21.007 9.658 22.352 10.991 24 10.991H24.014C24.814 10.987 25.565 10.674 26.13 10.107C26.694 9.54 27.004 8.786 27 7.986C26.993 6.342 25.648 5.009 23.999 5.009ZM38 38H41V36H38V38ZM34 38H37V36H34V38ZM30 38H33V36H30V38ZM26 38H29V36H26V38ZM26 33H42V31H26V33ZM26 29H42V27H26V29ZM26 25H32V23H26V25ZM46 44H2V14H18V18H17V20H31V18H30V14H46V44ZM20 18H28V4H20V18ZM30 12V2H18V12H0V46H48V12H30Z"  fill="currentColor"/>
</svg>
